public/logos/nginx.svg

<svg clip-rule="evenodd" fill-rule="evenodd" stroke-linecap="round" stroke-linejoin="round" viewBox="0 0 116 25" xmlns="http://www.w3.org/2000/svg"><g transform="translate(-11.5623 -11.1242)"><path d="m14.048 32.728v-19.065l19.062 19.065v-19.065" fill="none" stroke="#495057" stroke-width="5"/><path d="m44.688 11.188-.688 1.281-5.312 9.656-.688 1.219.688 1.219 5.312 9.343.719 1.282h13.906l.688-1.407 3.968-8 1.782-3.625h-4.032l-10.156.032c-1.321-.019-2.536 1.179-2.536 2.5 0 1.32 1.215 2.518 2.536 2.5l6.125-.032-1.5 3.032h-7.875l-3.906-6.875 3.937-7.125h8.377l1.954 4.007h5.031l-3.172-7.601-.688-1.406z" fill="#495057" fill-rule="nonzero"/><path d="m70.014 11.156c-1.309.017-2.485 1.223-2.469 2.532v6.514h5v-6.514c.017-1.33-1.201-2.548-2.531-2.532z" fill="#495057" fill-rule="nonzero"/><path d="m14.048 32.728v-19.065l19.062 19.065v-19.065" fill="none" stroke="#495057" stroke-width="5" transform="matrix(-1 0 0 1 111.139 .048416)"/><g fill="none" stroke="#495057" stroke-width="5" transform="translate(.105863 .330102)"><path d="m104.909 13.374 19.085 19.018"/><path d="m104.909 13.374 19.085 19.018" transform="matrix(-1 0 0 1 228.926 0)"/></g><path d="m70.014 35.204c-1.309-.016-2.485-1.222-2.469-2.531v-10.465h5v10.465c.017 1.33-1.201 2.548-2.531 2.531z" fill="#495057" fill-rule="nonzero"/></g></svg>

<?xml version="1.0" encoding="UTF-8" standalone="no"?>
<!DOCTYPE svg PUBLIC "-//W3C//DTD SVG 1.1//EN" "http://www.w3.org/Graphics/SVG/1.1/DTD/svg11.dtd">
<svg width="100%" height="100%" viewBox="0 0 116 25" version="1.1" xmlns="http://www.w3.org/2000/svg" xmlns:xlink="http://www.w3.org/1999/xlink" xml:space="preserve" xmlns:serif="http://www.serif.com/" style="fill-rule:evenodd;clip-rule:evenodd;stroke-linecap:round;stroke-linejoin:round;">
    <g transform="matrix(1,0,0,1,-11.5623,-11.1242)">
        <path id="a" d="M14.048,32.728L14.048,13.663L33.11,32.728L33.11,13.663" style="fill:none;fill-rule:nonzero;stroke:rgb(73,80,87);stroke-width:5px;"/>
        <path d="M44.688,11.188L44,12.469L38.688,22.125L38,23.344L38.688,24.563L44,33.906L44.719,35.188L58.625,35.188L59.313,33.781L63.281,25.781L65.063,22.156L61.031,22.156L50.875,22.188C49.554,22.169 48.339,23.367 48.339,24.688C48.339,26.008 49.554,27.206 50.875,27.188L57,27.156L55.5,30.188L47.625,30.188L43.719,23.313L47.656,16.188L56.033,16.188L57.987,20.195L63.018,20.195L59.846,12.594L59.158,11.188L44.688,11.188Z" style="fill:rgb(73,80,87);fill-rule:nonzero;"/>
        <path d="M70.014,11.156C68.705,11.173 67.529,12.379 67.545,13.688L67.545,20.202L72.545,20.202L72.545,13.688C72.562,12.358 71.344,11.14 70.014,11.156Z" style="fill:rgb(73,80,87);fill-rule:nonzero;"/>
        <g id="a1" serif:id="a" transform="matrix(-1,0,0,1,111.139,0.0484162)">
            <path d="M14.048,32.728L14.048,13.663L33.11,32.728L33.11,13.663" style="fill:none;fill-rule:nonzero;stroke:rgb(73,80,87);stroke-width:5px;"/>
        </g>
        <g transform="matrix(1,0,0,1,0.105863,0.330102)">
            <path id="b" d="M104.909,13.374L123.994,32.392" style="fill:none;fill-rule:nonzero;stroke:rgb(73,80,87);stroke-width:5px;"/>
            <g id="b1" serif:id="b" transform="matrix(-1,0,0,1,228.926,0)">
                <path d="M104.909,13.374L123.994,32.392" style="fill:none;fill-rule:nonzero;stroke:rgb(73,80,87);stroke-width:5px;"/>
            </g>
        </g>
        <path d="M70.014,35.204C68.705,35.188 67.529,33.982 67.545,32.673L67.545,22.208L72.545,22.208L72.545,32.673C72.562,34.003 71.344,35.221 70.014,35.204Z" style="fill:rgb(73,80,87);fill-rule:nonzero;"/>
    </g>
</svg>
